X:875
T:Swallow, The
R:Reel
B:The Athole Collection
M:C|
L:1/8
K:D
A|FD F/G/A d2 d>g|f2 d>f eEEA|FD F/G/A d2 d>g|faef dDD:|
|:g|fefg aeeg|fdgf e>EE>g|1 fefg aeeg fdec dDD:|2 fefg abag|fdec dDD||

